X: 6
T: Winnie Hayes'
R: jig
M: 6/8
L: 1/8
K: Edor
| ~E3 BAF | DFB AFD | ~E3 BAF |dBA FED |
~E3 BAF | DFB A3 |B3 BAB | dBA FED :|
~B3 e3 | fed e2A | ~B3 g3 | fed AFA |
~B3 e3  | fed e2f | gbg faf | edB AFA :|


Tune 797	Setting 22283

